ix/cards_twotone.svg

<svg viewBox="0 0 24 24" fill="none" xmlns="http://www.w3.org/2000/svg" height="1em" width="1em">
  <path d="M2 12.6099H19" stroke="#292D32" stroke-width="1.5" stroke-miterlimit="10" stroke-linecap="round" stroke-linejoin="round"/>
  <path d="M19 10.2798V17.4298C18.97 20.2798 18.19 20.9998 15.22 20.9998H5.78003C2.76003 20.9998 2 20.2498 2 17.2698V10.2798C2 7.5798 2.63 6.70981 5 6.56981C5.24 6.55981 5.50003 6.5498 5.78003 6.5498H15.22C18.24 6.5498 19 7.2998 19 10.2798Z" stroke="#292D32" stroke-width="1.5" stroke-linecap="round" stroke-linejoin="round"/>
  <path opacity="0.4" d="M22 6.73V13.72C22 16.42 21.37 17.29 19 17.43V10.28C19 7.3 18.24 6.55 15.22 6.55H5.78003C5.50003 6.55 5.24 6.56 5 6.57C5.03 3.72 5.81003 3 8.78003 3H18.22C21.24 3 22 3.75 22 6.73Z" stroke="#292D32" stroke-width="1.5" stroke-linecap="round" stroke-linejoin="round"/>
  <path opacity="0.4" d="M5.25 17.8101H6.96997" stroke="#292D32" stroke-width="1.5" stroke-miterlimit="10" stroke-linecap="round" stroke-linejoin="round"/>
  <path opacity="0.4" d="M9.10938 17.8101H12.5494" stroke="#292D32" stroke-width="1.5" stroke-miterlimit="10" stroke-linecap="round" stroke-linejoin="round"/>
</svg>

<svg viewBox="0 0 24 24" fill="none" xmlns="http://www.w3.org/2000/svg" height="1em" width="1em">
  <path d="M2 12.61h17" stroke="#292D32" stroke-width="1.5" stroke-miterlimit="10" stroke-linecap="round" stroke-linejoin="round"/>
  <path d="M19 10.28v7.15c-.03 2.85-.81 3.57-3.78 3.57H5.78C2.76 21 2 20.25 2 17.27v-6.99c0-2.7.63-3.57 3-3.71.24-.01.5-.02.78-.02h9.44c3.02 0 3.78.75 3.78 3.73Z" stroke="#292D32" stroke-width="1.5" stroke-linecap="round" stroke-linejoin="round"/>
  <path opacity=".4" d="M22 6.73v6.99c0 2.7-.63 3.57-3 3.71v-7.15c0-2.98-.76-3.73-3.78-3.73H5.78c-.28 0-.54.01-.78.02C5.03 3.72 5.81 3 8.78 3h9.44C21.24 3 22 3.75 22 6.73Z" stroke="#292D32" stroke-width="1.5" stroke-linecap="round" stroke-linejoin="round"/>
  <path opacity=".4" d="M5.25 17.81h1.72m2.14 0h3.44" stroke="#292D32" stroke-width="1.5" stroke-miterlimit="10" stroke-linecap="round" stroke-linejoin="round"/>
</svg>
